components/AnnouncementBar/logos/color-mx.svg

<svg width="213" height="182" viewBox="0 0 213 182" fill="none" xmlns="http://www.w3.org/2000/svg">
<path d="M106.581 131.613L118.097 116.806C118.194 116.71 118.194 116.516 118.194 116.419L108.032 46.3548C108.032 46.0645 107.742 45.871 107.452 45.871H94.1936C94 45.871 93.8065 45.9677 93.7097 46.1613L62.0645 110.613C61.871 111 61.2903 111 61.0968 110.613L29.1613 46.1613C29.0645 45.9677 28.871 45.871 28.6774 45.871H15.3226C15.0323 45.871 14.8387 46.0645 14.7419 46.3548L1.96774 134.323C1.87096 134.613 2.16129 134.903 2.54838 134.903H18.0323C18.3226 134.903 18.5161 134.71 18.6129 134.419L26.3548 78C26.4516 77.4194 27.129 77.3226 27.4194 77.8065L55.5806 134.613C55.6774 134.806 55.871 134.903 56.0645 134.903H67C67.1935 134.903 67.3871 134.806 67.4839 134.613L95.2581 78.5807C95.5484 78.0968 96.2258 78.1936 96.3226 78.7742L103.871 133.452C103.968 133.935 104.548 134.129 104.839 133.742L106.581 131.613Z" fill="black"/>
<path d="M200.839 45.871H181.387C181.194 45.871 181.097 45.9677 180.903 46.0645L157.581 76.6452C157.387 76.9355 156.903 76.9355 156.71 76.6452L133.29 46.0645C133.194 45.9677 133 45.871 132.806 45.871H113.355C112.871 45.871 112.677 46.4516 112.871 46.7419L146.355 90.0968C146.548 90.2903 146.548 90.5806 146.355 90.7742L112.871 134.129C112.581 134.516 112.871 135 113.355 135H132.806C133 135 133.097 134.903 133.29 134.806L156.71 104.226C156.903 103.935 157.387 103.935 157.581 104.226L181 134.806C181.097 134.903 181.29 135 181.484 135H200.935C201.419 135 201.613 134.419 201.419 134.129L167.935 90.7742C167.742 90.5806 167.742 90.2903 167.935 90.0968L201.419 46.7419C201.516 46.3548 201.323 45.871 200.839 45.871Z" fill="black"/>
<path d="M208.774 134.903C206.452 134.903 204.516 132.968 204.516 130.645C204.516 128.226 206.452 126.387 208.774 126.387C211.194 126.387 213.032 128.323 213.032 130.645C213.032 132.968 211.097 134.903 208.774 134.903ZM208.774 127.064C206.839 127.064 205.194 128.613 205.194 130.645C205.194 132.581 206.742 134.226 208.774 134.226C210.806 134.226 212.355 132.581 212.355 130.645C212.355 128.613 210.71 127.064 208.774 127.064ZM209.935 133.064L208.677 131.129H207.903V133.064H207.129V128.129H209.161C210.032 128.129 210.806 128.71 210.806 129.581C210.806 130.645 209.839 131.032 209.548 131.032L210.903 132.968H209.935V133.064ZM209.064 128.806H207.806V130.548H209.064C209.452 130.548 209.935 130.258 209.935 129.677C209.935 129.097 209.548 128.806 209.064 128.806Z" fill="black"/>
</svg>

<svg xmlns="http://www.w3.org/2000/svg" width="213" height="182" fill="none" viewBox="0 0 213 182">
  <path fill="#000" d="m106.581 131.613 11.516-14.807c.097-.096.097-.29.097-.387l-10.162-70.064c0-.29-.29-.484-.58-.484H94.194a.532.532 0 0 0-.484.29l-31.645 64.452c-.194.387-.775.387-.968 0L29.16 46.161a.532.532 0 0 0-.484-.29H15.323c-.29 0-.484.194-.581.484L1.968 134.323c-.097.29.193.58.58.58h15.484c.29 0 .484-.193.58-.484L26.356 78c.097-.58.774-.677 1.064-.194l28.162 56.807c.096.193.29.29.483.29H67a.533.533 0 0 0 .484-.29l27.774-56.032c.29-.484.968-.387 1.065.193l7.548 54.678c.097.483.677.677.968.29l1.742-2.129Z"/>
  <path fill="#000" d="M200.839 45.871h-19.452c-.193 0-.29.097-.484.194l-23.322 30.58c-.194.29-.678.29-.871 0l-23.42-30.58a.737.737 0 0 0-.484-.194h-19.451c-.484 0-.678.58-.484.87l33.484 43.356a.469.469 0 0 1 0 .677l-33.484 43.355c-.29.387 0 .871.484.871h19.451c.194 0 .291-.097.484-.194l23.42-30.58c.193-.291.677-.291.871 0L181 134.806c.097.097.29.194.484.194h19.451c.484 0 .678-.581.484-.871l-33.484-43.355a.469.469 0 0 1 0-.677l33.484-43.355c.097-.387-.096-.871-.58-.871Zm7.935 89.032c-2.322 0-4.258-1.935-4.258-4.258 0-2.419 1.936-4.258 4.258-4.258 2.42 0 4.258 1.936 4.258 4.258 0 2.323-1.935 4.258-4.258 4.258Zm0-7.839a3.573 3.573 0 0 0-3.58 3.581 3.572 3.572 0 0 0 3.58 3.581 3.573 3.573 0 0 0 3.581-3.581 3.573 3.573 0 0 0-3.581-3.581Zm1.161 6-1.258-1.935h-.774v1.935h-.774v-4.935h2.032c.871 0 1.645.581 1.645 1.452 0 1.064-.967 1.451-1.258 1.451l1.355 1.936h-.968v.096Zm-.871-4.258h-1.258v1.742h1.258c.388 0 .871-.29.871-.871 0-.58-.387-.871-.871-.871Z"/>
</svg>
